X:368
T:Red Apple Rag 
C:Joe Carr
N:Transcribed By Larry Tanner
R:bluegrass
L:1/8
Q:1/4=220
M:4/4
K:G
[BF][BG] [BG][BG] [B2G2] [BG][BG] | [BG]z [BG][BG] [B2G2] B,A, |: "G"G,B, DG EF GA | 
Bd BA GE DB, | "C"CB, CD EG cd | eg ec z2 FE | "D"DF Ad B^c de | fa fe df ed | 
ef ge dB AF |1 GE DB, G,2 B,A, :|2 G2 G2 G2 Bc |: dg ed g2 ag | ^ab bb g2 g2 | 
"C"c2 cd eg fg | a2 g2 eg fe | "D"fg fe df ed | fa fe df ed | ef ge dB AF |1 "G"G2 [B2G2] [B2G2] Bc :|2 "G"GE DB, G,4 | 


